addons/modern_ui_kit/plugin_icon.svg

<?xml version="1.0" encoding="UTF-8" standalone="no"?>
<!-- Created with Inkscape (http://www.inkscape.org/) -->

<svg
   width="16"
   height="16"
   viewBox="0 0 4.2333333 4.2333333"
   version="1.1"
   id="svg5"
   inkscape:version="1.2-alpha1 (b6a15bbbed, 2022-02-23)"
   sodipodi:docname="plugin_icon.svg"
   xmlns:inkscape="http://www.inkscape.org/namespaces/inkscape"
   xmlns:sodipodi="http://sodipodi.sourceforge.net/DTD/sodipodi-0.dtd"
   xmlns="http://www.w3.org/2000/svg"
   xmlns:svg="http://www.w3.org/2000/svg">
  <sodipodi:namedview
     id="namedview7"
     pagecolor="#ffffff"
     bordercolor="#999999"
     borderopacity="1"
     inkscape:pageshadow="0"
     inkscape:pageopacity="0"
     inkscape:pagecheckerboard="0"
     inkscape:deskcolor="#d1d1d1"
     inkscape:document-units="mm"
     showgrid="false"
     inkscape:zoom="16.710735"
     inkscape:cx="7.7195888"
     inkscape:cy="11.070728"
     inkscape:window-width="1920"
     inkscape:window-height="1009"
     inkscape:window-x="-8"
     inkscape:window-y="-8"
     inkscape:window-maximized="1"
     inkscape:current-layer="svg5" />
  <defs
     id="defs2" />
  <path
     id="rect892"
     style="display:inline;fill:#8eef97;fill-opacity:1;fill-rule:nonzero;stroke:none;stroke-width:0.0216198;stroke-linecap:round;stroke-linejoin:round"
     inkscape:label="rect892"
     d="M 0.99997117,0 A 0.99999999,0.99999999 0 0 0 -3.1833333e-5,1.000003 V 3.23333 A 0.99999999,0.99999999 0 0 0 0.99997117,4.233333 H 3.2332982 A 0.99999999,0.99999999 0 0 0 4.2333012,3.23333 V 1.000003 A 0.99999999,0.99999999 0 0 0 3.2332982,0 Z m 0,0.499969 H 3.2332982 a 0.5,0.5 0 0 1 0.500034,0.500034 V 3.23333 A 0.5,0.5 0 0 1 3.2332982,3.733364 H 0.99997117 A 0.5,0.5 0 0 1 0.49993717,3.23333 V 1.000003 a 0.5,0.5 0 0 1 0.500034,-0.500034 z" />
  <path
     id="path17344"
     style="display:inline;fill:#8eef97;fill-opacity:1;fill-rule:nonzero;stroke:none;stroke-width:0.0250661;stroke-linecap:round;stroke-linejoin:round"
     d="m 1.2500022,1.616632 c -0.27616903,-1.8e-5 -0.50005303,0.223866 -0.50003403,0.500034 1.7e-5,0.276144 0.22389,0.499989 0.50003403,0.49997 V 2.366651 c 0,-0.372429 0,-0.344843 0,-0.500034 z"
     sodipodi:nodetypes="cccssc" />
  <path
     id="path20789"
     style="fill:#8eef97;fill-opacity:1;fill-rule:nonzero;stroke:none;stroke-width:0.0250661;stroke-linecap:round;stroke-linejoin:round"
     d="m 2.9833432,1.616632 v 0.249985 0.500034 0.249985 c 0.276118,-1.7e-5 0.499952,-0.223851 0.499969,-0.49997 1.9e-5,-0.276143 -0.223825,-0.500017 -0.499969,-0.500034 z"
     sodipodi:nodetypes="cssccc" />
  <path
     id="path28120"
     style="fill:#8eef97;fill-opacity:1;fill-rule:nonzero;stroke:none;stroke-width:0.0250661;stroke-linecap:round;stroke-linejoin:round"
     d="M 2.6166682,1.250034 C 2.6166872,0.973865 2.3928032,0.749981 2.1166342,0.75 c -0.276143,1.7e-5 -0.499988,0.22389 -0.499969,0.500034 h 0.249985 c 0.374016,0 0.375031,0 0.500034,0 0.125003,0 0.249984,0 0.249984,0 z"
     sodipodi:nodetypes="cccssc" />
  <path
     id="path28122"
     style="fill:#8eef97;fill-opacity:1;fill-rule:nonzero;stroke:none;stroke-width:0.0250661;stroke-linecap:round;stroke-linejoin:round"
     d="m 2.6166682,2.983375 h -0.249984 c -0.532226,0 -0.273522,0 -0.500034,0 h -0.249985 c 1.7e-5,0.276118 0.223851,0.499952 0.499969,0.499969 0.276144,1.9e-5 0.500018,-0.223825 0.500034,-0.499969 z"
     sodipodi:nodetypes="cssccc" />
  <circle
     style="display:none;fill:#8eef97;fill-opacity:1;fill-rule:nonzero;stroke:none;stroke-width:0.0297656;stroke-linecap:round;stroke-linejoin:round"
     id="path46539"
     cx="2.1166718"
     cy="2.1167035"
     r="0.32467583" />
</svg>

<?xml version="1.0" encoding="UTF-8"?>
<!-- Created with Inkscape (http://www.inkscape.org/) -->
<svg width="16" height="16" version="1.1" viewBox="0 0 4.2333 4.2333" xmlns="http://www.w3.org/2000/svg">
 <g fill="#8eef97">
  <path d="m0.99997 0a1 1 0 0 0-1 1v2.2333a1 1 0 0 0 1 1h2.2333a1 1 0 0 0 1-1v-2.2333a1 1 0 0 0-1-1zm0 0.49997h2.2333a0.5 0.5 0 0 1 0.50003 0.50003v2.2333a0.5 0.5 0 0 1-0.50003 0.50003h-2.2333a0.5 0.5 0 0 1-0.50003-0.50003v-2.2333a0.5 0.5 0 0 1 0.50003-0.50003z"/>
  <path d="m1.25 1.6166c-0.27617-1.8e-5 -0.50005 0.22387-0.50003 0.50003 1.7e-5 0.27614 0.22389 0.49999 0.50003 0.49997v-0.24998-0.50003z"/>
  <path d="m2.9833 1.6166v1c0.27612-1.7e-5 0.49995-0.22385 0.49997-0.49997 1.9e-5 -0.27614-0.22382-0.50002-0.49997-0.50003z"/>
  <path d="m2.6167 1.25c1.9e-5 -0.27617-0.22386-0.50005-0.50003-0.50003-0.27614 1.7e-5 -0.49999 0.22389-0.49997 0.50003h0.24998 0.50003 0.24998z"/>
  <path d="m2.6167 2.9834h-0.24998-0.50003-0.24998c1.7e-5 0.27612 0.22385 0.49995 0.49997 0.49997 0.27614 1.9e-5 0.50002-0.22382 0.50003-0.49997z"/>
  <circle cx="2.1167" cy="2.1167" r=".32468" display="none"/>
 </g>
</svg>
